dist/svgs/crypto-icons/icons/vtc.svg

<?xml version="1.0" encoding="UTF-8" standalone="yes"?>
<svg xmlns="http://www.w3.org/2000/svg" xmlns:xlink="http://www.w3.org/1999/xlink" width="512px" height="512px" viewBox="0 0 384 384" version="1.1">
  <g id="surface1">
    <path style=" stroke:none;fill-rule:nonzero;fill:rgb(0%,0%,0%);fill-opacity:1;" d="M 364.441406 53.914062 C 351.835938 37.273438 336.539062 22.984375 336.539062 22.984375 L 136.335938 309.378906 L 170.34375 354.480469 C 170.34375 354.480469 175.386719 360.640625 183.121094 360.640625 C 190.851562 360.640625 194.660156 354.8125 194.660156 354.8125 L 384.28125 86.863281 C 384.28125 86.863281 377.050781 70.554688 364.441406 53.914062 Z M 130.375 301.476562 L 177.539062 233.992188 L 124.734375 165.195312 L 28.242188 165.195312 L 27.742188 165.753906 Z M 21.351562 172.910156 L 0 196.800781 L 39.359375 196.800781 Z M 21.351562 172.910156 "/>
  </g>
</svg>

<svg xmlns="http://www.w3.org/2000/svg" viewBox="0 0 384 384"><path d="M364.441 53.914c-12.605-16.64-27.902-30.93-27.902-30.93L136.336 309.38l34.008 45.101s5.043 6.16 12.777 6.16c7.73 0 11.54-5.827 11.54-5.827l189.62-267.95s-7.23-16.308-19.84-32.949zM130.375 301.477l47.164-67.485-52.805-68.797H28.242l-.5.559zM21.352 172.91L0 196.8h39.36zm0 0"/></svg>
